Sweet-Rainbow/icons/tdewalletmanager.svg

<?xml version="1.0" encoding="UTF-8" standalone="no"?>
<!-- Generator: Gravit.io -->

<svg
   xmlns:dc="http://purl.org/dc/elements/1.1/"
   xmlns:cc="http://creativecommons.org/ns#"
   xmlns:rdf="http://www.w3.org/1999/02/22-rdf-syntax-ns#"
   xmlns:svg="http://www.w3.org/2000/svg"
   xmlns="http://www.w3.org/2000/svg"
   xmlns:sodipodi="http://sodipodi.sourceforge.net/DTD/sodipodi-0.dtd"
   xmlns:inkscape="http://www.inkscape.org/namespaces/inkscape"
   style="isolation:isolate"
   viewBox="0 0 36 36"
   width="48"
   height="48"
   version="1.1"
   id="svg9"
   sodipodi:docname="tdewalletmanager.svg"
   inkscape:version="0.92.4 (5da689c313, 2019-01-14)">
  <metadata
     id="metadata15">
    <rdf:RDF>
      <cc:Work
         rdf:about="">
        <dc:format>image/svg+xml</dc:format>
        <dc:type
           rdf:resource="http://purl.org/dc/dcmitype/StillImage" />
        <dc:title></dc:title>
      </cc:Work>
    </rdf:RDF>
  </metadata>
  <defs
     id="defs13" />
  <sodipodi:namedview
     pagecolor="#ffffff"
     bordercolor="#666666"
     borderopacity="1"
     objecttolerance="10"
     gridtolerance="10"
     guidetolerance="10"
     inkscape:pageopacity="0"
     inkscape:pageshadow="2"
     inkscape:window-width="640"
     inkscape:window-height="480"
     id="namedview11"
     showgrid="false"
     inkscape:zoom="29.365243"
     inkscape:cx="25.325443"
     inkscape:cy="32"
     inkscape:current-layer="svg9"
     units="px" />
  <linearGradient
     id="_lgradient_16"
     x1="0"
     y1="0.5"
     x2="1"
     y2="0.5"
     gradientTransform="matrix(48,0,0,42.094,0,2.953)"
     gradientUnits="userSpaceOnUse">
    <stop
       offset="0%"
       stop-opacity="1"
       style="stop-color:rgb(255,95,109)"
       id="stop2" />
    <stop
       offset="98.26086956521739%"
       stop-opacity="1"
       style="stop-color:rgb(255,195,113)"
       id="stop4" />
  </linearGradient>
  <g
     id="g826"
     transform="matrix(0.75,0,0,0.75,0,6.9884961e-5)">
    <path
       id="path7"
       d="m 44.488,23.974 v -3.512 c 0,-0.646 -0.525,-1.171 -1.171,-1.171 H 4.683 c -0.646,0 -1.171,0.525 -1.171,1.171 v 19.902 c 0,0.646 0.525,1.171 1.171,1.171 h 13.463 v 0 0 0 c 0.97,0 1.756,0.787 1.756,1.756 v 0 c 0,0.969 -0.786,1.756 -1.756,1.756 v 0 H 3.512 C 1.574,45.047 0,43.473 0,41.535 V 19.291 c 0,-1.938 1.574,-3.512 3.512,-3.512 h 4.582 v 0 L 20.477,4.345 c 1.899,-1.753 5.079,-1.866 7.097,-0.251 l 2.454,1.964 c 2.096,-1.42 4.996,-0.943 6.523,1.092 l 5.244,6.99 1.583,1.639 h 1.11 c 1.938,0 3.512,1.574 3.512,3.512 v 22.244 c 0,1.938 -1.574,3.512 -3.512,3.512 H 29.854 v 0 c -0.97,0 -1.756,-0.787 -1.756,-1.756 v 0 c 0,-0.969 0.786,-1.756 1.756,-1.756 v 0 h 13.463 c 0.646,0 1.171,-0.525 1.171,-1.171 V 36.852 H 33.951 c -2.584,0 -4.683,-2.098 -4.683,-4.683 v -3.512 c 0,-2.585 2.099,-4.683 4.683,-4.683 z m 0,3.512 v 5.854 h -9.366 c -1.292,0 -2.342,-1.049 -2.342,-2.342 v -1.17 c 0,-1.293 1.05,-2.342 2.342,-2.342 z M 13.273,15.779 h 3.143 v 0 L 27.054,8.18 25.911,7.266 c -1.01,-0.807 -2.6,-0.75 -3.55,0.126 z m 9.179,0 H 38.634 L 34.396,10.125 C 33.621,9.091 32.137,8.861 31.086,9.612 Z M 24,41.535 v 0 c 0.969,0 1.756,0.787 1.756,1.756 v 0 c 0,0.969 -0.787,1.756 -1.756,1.756 v 0 c -0.969,0 -1.756,-0.787 -1.756,-1.756 v 0 c 0,-0.969 0.787,-1.756 1.756,-1.756 z M 36.293,28.657 v 0 c 0.969,0 1.756,0.787 1.756,1.756 v 0 c 0,0.969 -0.787,1.756 -1.756,1.756 v 0 c -0.97,0 -1.756,-0.787 -1.756,-1.756 v 0 c 0,-0.969 0.786,-1.756 1.756,-1.756 z"
       style="fill:url(#_lgradient_16);fill-rule:evenodd"
       inkscape:connector-curvature="0" />
  </g>
</svg>

<?xml version="1.0" encoding="UTF-8" standalone="no"?><!-- Generator: Gravit.io --><svg xmlns="http://www.w3.org/2000/svg" xmlns:xlink="http://www.w3.org/1999/xlink" style="isolation:isolate" viewBox="0 0 48 48" width="48pt" height="48pt"><linearGradient id="_lgradient_16" x1="0" y1="0.5" x2="1" y2="0.5" gradientTransform="matrix(48,0,0,42.094,0,2.953)" gradientUnits="userSpaceOnUse"><stop offset="0%" stop-opacity="1" style="stop-color:rgb(255,95,109)"/><stop offset="98.26086956521739%" stop-opacity="1" style="stop-color:rgb(255,195,113)"/></linearGradient><path d=" M 44.488 23.974 L 44.488 20.462 C 44.488 19.816 43.963 19.291 43.317 19.291 L 4.683 19.291 C 4.037 19.291 3.512 19.816 3.512 20.462 L 3.512 40.364 C 3.512 41.01 4.037 41.535 4.683 41.535 L 18.146 41.535 L 18.146 41.535 L 18.146 41.535 L 18.146 41.535 C 19.116 41.535 19.902 42.322 19.902 43.291 L 19.902 43.291 C 19.902 44.26 19.116 45.047 18.146 45.047 L 18.146 45.047 L 3.512 45.047 C 1.574 45.047 0 43.473 0 41.535 L 0 19.291 C 0 17.353 1.574 15.779 3.512 15.779 L 8.094 15.779 L 8.094 15.779 L 20.477 4.345 C 22.376 2.592 25.556 2.479 27.574 4.094 L 30.028 6.058 C 32.124 4.638 35.024 5.115 36.551 7.15 L 41.795 14.14 L 43.378 15.779 L 44.488 15.779 C 46.426 15.779 48 17.353 48 19.291 L 48 41.535 C 48 43.473 46.426 45.047 44.488 45.047 L 29.854 45.047 L 29.854 45.047 C 28.884 45.047 28.098 44.26 28.098 43.291 L 28.098 43.291 C 28.098 42.322 28.884 41.535 29.854 41.535 L 29.854 41.535 L 43.317 41.535 C 43.963 41.535 44.488 41.01 44.488 40.364 L 44.488 36.852 L 33.951 36.852 C 31.367 36.852 29.268 34.754 29.268 32.169 L 29.268 28.657 C 29.268 26.072 31.367 23.974 33.951 23.974 L 44.488 23.974 Z  M 44.488 27.486 L 44.488 33.34 L 35.122 33.34 C 33.83 33.34 32.78 32.291 32.78 30.998 L 32.78 29.828 C 32.78 28.535 33.83 27.486 35.122 27.486 L 44.488 27.486 Z  M 13.273 15.779 L 16.416 15.779 L 16.416 15.779 L 27.054 8.18 L 25.911 7.266 C 24.901 6.459 23.311 6.516 22.361 7.392 L 13.273 15.779 L 13.273 15.779 Z  M 22.452 15.779 L 38.634 15.779 L 34.396 10.125 C 33.621 9.091 32.137 8.861 31.086 9.612 L 22.452 15.779 L 22.452 15.779 L 22.452 15.779 Z  M 24 41.535 L 24 41.535 C 24.969 41.535 25.756 42.322 25.756 43.291 L 25.756 43.291 C 25.756 44.26 24.969 45.047 24 45.047 L 24 45.047 C 23.031 45.047 22.244 44.26 22.244 43.291 L 22.244 43.291 C 22.244 42.322 23.031 41.535 24 41.535 L 24 41.535 L 24 41.535 L 24 41.535 L 24 41.535 Z  M 36.293 28.657 L 36.293 28.657 C 37.262 28.657 38.049 29.444 38.049 30.413 L 38.049 30.413 C 38.049 31.382 37.262 32.169 36.293 32.169 L 36.293 32.169 C 35.323 32.169 34.537 31.382 34.537 30.413 L 34.537 30.413 C 34.537 29.444 35.323 28.657 36.293 28.657 L 36.293 28.657 L 36.293 28.657 L 36.293 28.657 Z " fill-rule="evenodd" fill="url(#_lgradient_16)"/></svg>
